!!!OTL: ACH SUESSER SCHATZ AUF DIESER ERD
!!!ARE: Europa, Mitteleuropa, Deutschland
!!!SCT: E0475
!!!YEM: Copyright 1995, estate of Helmut Schaffrath.
**kern
*ICvox
*M3/4
*met(3)
*k[f#]
*G:
=1
!LO:TX:a:t=Ach süßer Schatz dau dieser Erd.
{4g
4g
4g
=2
(4.e
8f#)
4g
=3
(4.a
8g)
4f#
=4
2.e}
=5
{(4.f#
8g)
4a
=6
2g
4f#
=7
(4.e
8d)
4e
=8
2.d}
=9
{4g
4g
4g
=10
(4.e
8f#)
4g
=11
(4.a
8g)
4f#
=12
2.e}
=13
{(4.f#
8g)
4a
=14
2g
4f#
=15
(4.e
8d)
4e
=16
2.d}
=17
{4b
4b
4b
=18
(4.g
8a)
4b/
=19
2a
4g
=20
2.f#}
=21
{4.dd
8cc
4b
=22
2a
4g
=23
(4.f#
8g)
4a
=24
2.g,}
==
!!!AGN: Liebes - Lied
!!!ONB: ESAC (Essen Associative Code) Database: ERK1
!!!AMT: simple triple
!!!AIN: vox
!!!EED: Helmut Schaffrath
!!!EEV: 1.0
!!!GTL: Liebeslieder [Alte (aus dem 13. bis 17. Jahrh.) mit ihrem jungen Nachwuchs]
!!!URL-scan: https://rosdok.uni-rostock.de/mcrviewer/recordIdentifier/rosdok_ppn745177662/iview2/phys_0299.iview2?x=-445.812200956939&y=976.8648770966101&scale=0.47662485746864275&rotation=0&layout=singlePageLayout
!!!ENC: Anna Maria Matuszewska
!!!EEV: 2024/10/12
*-
